X: 23084
T: Laughing Seagull, The
R: jig
M: 6/8
K: Dmajor
|:"D" Add fdd|"D" ffg fdd|"A" cee fee|"A" Ace gec|
"D" Add fdd|"D" ffg fdd|"A" aAA cAA|"A7" gec "D" edd:|
|:"D" afd fdd|"D" ffg fdd|"A"cee fee|"A"Ace aec|
"D" Add fdd|"D"ffg fdd|"A"aAA cAA|"A"gec "D" edd:|

